app/img/call-to-action.svg

<svg width="366" height="366" viewBox="0 0 366 366" fill="none" xmlns="http://www.w3.org/2000/svg">
    <g opacity="0.81">
        <path fill-rule="evenodd" clip-rule="evenodd"
              d="M146.512 174.275C141.704 194.425 154.141 214.657 174.291 219.465C194.442 224.273 214.674 211.835 219.482 191.685C224.29 171.535 211.852 151.303 191.702 146.495C171.552 141.687 151.32 154.124 146.512 174.275ZM174.988 216.547C156.449 212.123 145.007 193.509 149.43 174.971C153.853 156.432 172.468 144.99 191.006 149.413C209.544 153.836 220.987 172.451 216.564 190.989C212.14 209.527 193.526 220.97 174.988 216.547Z"
              fill="#80FF9F" fill-opacity="0.5"/>
        <path fill-rule="evenodd" clip-rule="evenodd"
              d="M138.579 183C138.579 158.468 158.467 138.58 183 138.58C207.533 138.58 227.421 158.468 227.421 183C227.421 207.533 207.533 227.421 183 227.421C158.467 227.421 138.579 207.533 138.579 183ZM183 141.49C160.074 141.49 141.489 160.075 141.489 183C141.489 205.926 160.074 224.511 183 224.511C205.926 224.511 224.511 205.926 224.511 183C224.511 160.075 205.926 141.49 183 141.49Z"
              fill="#80FF9F" fill-opacity="0.5"/>
        <path fill-rule="evenodd" clip-rule="evenodd"
              d="M183 131.673C154.653 131.673 131.673 154.653 131.673 183.001C131.673 211.348 154.653 234.328 183 234.328C211.347 234.328 234.327 211.348 234.327 183.001C234.327 154.653 211.347 131.673 183 131.673ZM134.483 183.001C134.483 156.205 156.205 134.483 183 134.483C209.795 134.483 231.517 156.205 231.517 183.001C231.517 209.796 209.795 231.518 183 231.518C156.205 231.518 134.483 209.796 134.483 183.001Z"
              fill="#80FF9F" fill-opacity="0.5"/>
        <path fill-rule="evenodd" clip-rule="evenodd"
              d="M124.773 183C124.773 150.843 150.842 124.774 183 124.774C215.158 124.774 241.227 150.843 241.227 183C241.227 215.158 215.158 241.227 183 241.227C150.842 241.227 124.773 215.158 124.773 183ZM183 127.494C152.344 127.494 127.493 152.345 127.493 183C127.493 213.656 152.344 238.507 183 238.507C213.655 238.507 238.507 213.656 238.507 183C238.507 152.345 213.655 127.494 183 127.494Z"
              fill="#80FF9F" fill-opacity="0.5"/>
        <path fill-rule="evenodd" clip-rule="evenodd"
              d="M183 117.862C147.025 117.862 117.862 147.026 117.862 183.001C117.862 218.975 147.025 248.139 183 248.139C218.975 248.139 248.138 218.975 248.138 183.001C248.138 147.026 218.975 117.862 183 117.862ZM120.492 183.001C120.492 148.478 148.478 120.492 183 120.492C217.522 120.492 245.508 148.478 245.508 183.001C245.508 217.523 217.522 245.509 183 245.509C148.478 245.509 120.492 217.523 120.492 183.001Z"
              fill="#80FF9F" fill-opacity="0.5"/>
        <path fill-rule="evenodd" clip-rule="evenodd"
              d="M110.962 183C110.962 143.215 143.215 110.962 183 110.962C222.785 110.962 255.038 143.215 255.038 183C255.038 222.785 222.785 255.038 183 255.038C143.215 255.038 110.962 222.785 110.962 183ZM183 113.502C144.617 113.502 113.502 144.617 113.502 183C113.502 221.382 144.617 252.498 183 252.498C221.382 252.498 252.498 221.382 252.498 183C252.498 144.617 221.382 113.502 183 113.502Z"
              fill="#80FF9F" fill-opacity="0.5"/>
        <path fill-rule="evenodd" clip-rule="evenodd"
              d="M183 104.056C139.4 104.056 104.056 139.401 104.056 183C104.056 226.6 139.4 261.945 183 261.945C226.6 261.945 261.944 226.6 261.944 183C261.944 139.401 226.6 104.056 183 104.056ZM106.496 183C106.496 140.748 140.748 106.496 183 106.496C225.252 106.496 259.504 140.748 259.504 183C259.504 225.252 225.252 259.505 183 259.505C140.748 259.505 106.496 225.252 106.496 183Z"
              fill="#80FF9F" fill-opacity="0.5"/>
        <path fill-rule="evenodd" clip-rule="evenodd"
              d="M97.1442 183.001C97.1442 135.584 135.583 97.1449 183 97.1449C230.417 97.1449 268.856 135.584 268.856 183.001C268.856 230.418 230.417 268.857 183 268.857C135.583 268.857 97.1442 230.418 97.1442 183.001ZM183 99.4949C136.881 99.4949 99.4942 136.882 99.4942 183.001C99.4942 229.12 136.881 266.507 183 266.507C229.119 266.507 266.506 229.12 266.506 183.001C266.506 136.882 229.119 99.4949 183 99.4949Z"
              fill="#80FF9F" fill-opacity="0.5"/>
        <path fill-rule="evenodd" clip-rule="evenodd"
              d="M183 90.2449C131.773 90.2449 90.2446 131.773 90.2446 183C90.2446 234.227 131.773 275.755 183 275.755C234.227 275.755 275.755 234.227 275.755 183C275.755 131.773 234.227 90.2449 183 90.2449ZM92.5046 183C92.5046 133.021 133.021 92.5049 183 92.5049C232.979 92.5049 273.495 133.021 273.495 183C273.495 232.979 232.979 273.495 183 273.495C133.021 273.495 92.5046 232.979 92.5046 183Z"
              fill="#80FF9F" fill-opacity="0.5"/>
        <path fill-rule="evenodd" clip-rule="evenodd"
              d="M178.683 281.997C123.638 279.795 80.8006 233.388 83.0024 178.343C85.2042 123.299 131.611 80.4612 186.656 82.663C241.7 84.8647 284.538 131.272 282.336 186.316C280.134 241.361 233.727 284.198 178.683 281.997ZM85.1724 178.43C83.0186 232.276 124.923 277.673 178.769 279.827C232.615 281.98 278.012 240.076 280.166 186.23C282.32 132.384 240.415 86.9868 186.569 84.833C132.723 82.6791 87.3263 124.584 85.1724 178.43Z"
              fill="#80FF9F" fill-opacity="0.5"/>
        <path fill-rule="evenodd" clip-rule="evenodd"
              d="M183 76.4388C124.148 76.4388 76.4387 124.148 76.4387 183C76.4387 241.852 124.148 289.561 183 289.561C241.852 289.561 289.561 241.852 289.561 183C289.561 124.148 241.852 76.4388 183 76.4388ZM78.5087 183C78.5087 125.291 125.291 78.5088 183 78.5088C240.709 78.5088 287.491 125.291 287.491 183C287.491 240.709 240.709 287.491 183 287.491C125.291 287.491 78.5087 240.709 78.5087 183Z"
              fill="#80FF9F" fill-opacity="0.5"/>
        <path fill-rule="evenodd" clip-rule="evenodd"
              d="M69.5272 183C69.5272 120.331 120.331 69.5274 183 69.5274C245.669 69.5274 296.473 120.331 296.473 183C296.473 245.67 245.669 296.473 183 296.473C120.331 296.473 69.5272 245.67 69.5272 183ZM183 71.5074C121.424 71.5074 71.5072 121.424 71.5072 183C71.5072 244.576 121.424 294.493 183 294.493C244.576 294.493 294.493 244.576 294.493 183C294.493 121.424 244.576 71.5074 183 71.5074Z"
              fill="#80FF9F" fill-opacity="0.5"/>
        <path fill-rule="evenodd" clip-rule="evenodd"
              d="M183 62.6162C116.514 62.6162 62.6156 116.514 62.6156 183.001C62.6156 249.487 116.514 303.385 183 303.385C249.486 303.385 303.384 249.487 303.384 183.001C303.384 116.514 249.486 62.6162 183 62.6162ZM64.5056 183.001C64.5056 117.558 117.557 64.5062 183 64.5062C248.443 64.5062 301.494 117.558 301.494 183.001C301.494 248.443 248.443 301.495 183 301.495C117.557 301.495 64.5056 248.443 64.5056 183.001Z"
              fill="#80FF9F" fill-opacity="0.5"/>
        <path fill-rule="evenodd" clip-rule="evenodd"
              d="M55.7212 183C55.7212 112.706 112.706 55.7214 183 55.7214C253.294 55.7214 310.279 112.706 310.279 183C310.279 253.294 253.294 310.279 183 310.279C112.706 310.279 55.7212 253.294 55.7212 183ZM183 57.5114C113.695 57.5114 57.5112 113.695 57.5112 183C57.5112 252.306 113.695 308.489 183 308.489C252.306 308.489 308.489 252.306 308.489 183C308.489 113.695 252.306 57.5114 183 57.5114Z"
              fill="#80FF9F" fill-opacity="0.5"/>
        <path fill-rule="evenodd" clip-rule="evenodd"
              d="M183 48.81C108.889 48.81 48.8095 108.889 48.8095 183C48.8095 257.112 108.889 317.191 183 317.191C257.111 317.191 317.19 257.112 317.19 183C317.19 108.889 257.111 48.81 183 48.81ZM50.5095 183C50.5095 109.828 109.827 50.51 183 50.51C256.172 50.51 315.49 109.828 315.49 183C315.49 256.173 256.172 315.491 183 315.491C109.827 315.491 50.5095 256.173 50.5095 183Z"
              fill="#80FF9F" fill-opacity="0.5"/>
        <path fill-rule="evenodd" clip-rule="evenodd"
              d="M41.9101 183C41.9101 105.078 105.078 41.9102 183 41.9102C260.922 41.9102 324.09 105.078 324.09 183C324.09 260.922 260.922 324.09 183 324.09C105.078 324.09 41.9101 260.922 41.9101 183ZM183 43.5202C105.967 43.5202 43.5201 105.967 43.5201 183C43.5201 260.033 105.967 322.48 183 322.48C260.032 322.48 322.48 260.033 322.48 183C322.48 105.967 260.032 43.5202 183 43.5202Z"
              fill="#80FF9F" fill-opacity="0.5"/>
        <path fill-rule="evenodd" clip-rule="evenodd"
              d="M183 34.999C101.261 34.999 34.9986 101.261 34.9986 183C34.9986 264.739 101.261 331.002 183 331.002C264.739 331.002 331.001 264.739 331.001 183C331.001 101.261 264.739 34.999 183 34.999ZM36.5186 183C36.5186 102.101 102.101 36.519 183 36.519C263.899 36.519 329.481 102.101 329.481 183C329.481 263.9 263.899 329.482 183 329.482C102.101 329.482 36.5186 263.9 36.5186 183Z"
              fill="#80FF9F" fill-opacity="0.5"/>
        <path fill-rule="evenodd" clip-rule="evenodd"
              d="M28.092 183.001C28.092 97.4472 97.4466 28.0926 183 28.0926C268.553 28.0926 337.908 97.4472 337.908 183.001C337.908 268.554 268.553 337.909 183 337.909C97.4466 337.909 28.092 268.554 28.092 183.001ZM183 29.5126C98.2309 29.5126 29.512 98.2315 29.512 183.001C29.512 267.77 98.2309 336.489 183 336.489C267.769 336.489 336.488 267.77 336.488 183.001C336.488 98.2315 267.769 29.5126 183 29.5126Z"
              fill="#80FF9F" fill-opacity="0.5"/>
        <path fill-rule="evenodd" clip-rule="evenodd"
              d="M183 21.1927C93.6363 21.1927 21.1926 93.6364 21.1926 183C21.1926 272.364 93.6363 344.808 183 344.808C272.364 344.808 344.808 272.364 344.808 183C344.808 93.6364 272.364 21.1927 183 21.1927ZM22.5226 183C22.5226 94.3709 94.3708 22.5227 183 22.5227C271.629 22.5227 343.478 94.3709 343.478 183C343.478 271.629 271.629 343.478 183 343.478C94.3708 343.478 22.5226 271.629 22.5226 183Z"
              fill="#80FF9F" fill-opacity="0.5"/>
        <path fill-rule="evenodd" clip-rule="evenodd"
              d="M14.2809 183.001C14.2809 89.8196 89.819 14.2815 183 14.2815C276.181 14.2815 351.719 89.8196 351.719 183.001C351.719 276.181 276.181 351.719 183 351.719C89.819 351.719 14.2809 276.181 14.2809 183.001ZM183 15.5215C90.5038 15.5215 15.5209 90.5044 15.5209 183.001C15.5209 275.497 90.5038 350.479 183 350.479C275.496 350.479 350.479 275.497 350.479 183.001C350.479 90.5044 275.496 15.5215 183 15.5215Z"
              fill="#80FF9F" fill-opacity="0.5"/>
        <path fill-rule="evenodd" clip-rule="evenodd"
              d="M183 7.38148C86.0086 7.38148 7.38153 86.0085 7.38153 183C7.38153 279.991 86.0086 358.618 183 358.618C279.991 358.618 358.618 279.991 358.618 183C358.618 86.0085 279.991 7.38148 183 7.38148ZM8.53153 183C8.53153 86.6437 86.6437 8.53148 183 8.53148C279.356 8.53148 357.468 86.6437 357.468 183C357.468 279.356 279.356 357.468 183 357.468C86.6437 357.468 8.53153 279.356 8.53153 183Z"
              fill="#80FF9F" fill-opacity="0.5"/>
        <path fill-rule="evenodd" clip-rule="evenodd"
              d="M183 0.475098C82.1942 0.475098 0.474976 82.1943 0.474976 183C0.474976 283.806 82.1942 365.525 183 365.525C283.806 365.525 365.525 283.806 365.525 183C365.525 82.1943 283.806 0.475098 183 0.475098ZM1.52498 183C1.52498 82.7742 82.7741 1.5251 183 1.5251C283.226 1.5251 364.475 82.7742 364.475 183C364.475 283.226 283.226 364.475 183 364.475C82.7741 364.475 1.52498 283.226 1.52498 183Z"
              fill="#80FF9F" fill-opacity="0.5"/>
    </g>
</svg>

<svg width="366" height="366" fill="none" xmlns="http://www.w3.org/2000/svg"><g opacity=".81" fill-rule="evenodd" clip-rule="evenodd" fill="#80FF9F" fill-opacity=".5"><path d="M146.512 174.275c-4.808 20.15 7.629 40.382 27.779 45.19 20.151 4.808 40.383-7.63 45.191-27.78 4.808-20.15-7.63-40.382-27.78-45.19-20.15-4.808-40.382 7.629-45.19 27.78Zm28.476 42.272c-18.539-4.424-29.981-23.038-25.558-41.576 4.423-18.539 23.038-29.981 41.576-25.558 18.538 4.423 29.981 23.038 25.558 41.576-4.424 18.538-23.038 29.981-41.576 25.558Z"/><path d="M138.579 183c0-24.532 19.888-44.42 44.421-44.42 24.533 0 44.421 19.888 44.421 44.42 0 24.533-19.888 44.421-44.421 44.421-24.533 0-44.421-19.888-44.421-44.421ZM183 141.49c-22.926 0-41.511 18.585-41.511 41.51 0 22.926 18.585 41.511 41.511 41.511 22.926 0 41.511-18.585 41.511-41.511 0-22.925-18.585-41.51-41.511-41.51Z"/><path d="M183 131.673c-28.347 0-51.327 22.98-51.327 51.328 0 28.347 22.98 51.327 51.327 51.327 28.347 0 51.327-22.98 51.327-51.327 0-28.348-22.98-51.328-51.327-51.328Zm-48.517 51.328c0-26.796 21.722-48.518 48.517-48.518s48.517 21.722 48.517 48.518c0 26.795-21.722 48.517-48.517 48.517s-48.517-21.722-48.517-48.517Z"/><path d="M124.773 183c0-32.157 26.069-58.226 58.227-58.226s58.227 26.069 58.227 58.226c0 32.158-26.069 58.227-58.227 58.227S124.773 215.158 124.773 183ZM183 127.494c-30.656 0-55.507 24.851-55.507 55.506 0 30.656 24.851 55.507 55.507 55.507 30.655 0 55.507-24.851 55.507-55.507 0-30.655-24.852-55.506-55.507-55.506Z"/><path d="M183 117.862c-35.975 0-65.138 29.164-65.138 65.139 0 35.974 29.163 65.138 65.138 65.138 35.975 0 65.138-29.164 65.138-65.138 0-35.975-29.163-65.139-65.138-65.139Zm-62.508 65.139c0-34.523 27.986-62.509 62.508-62.509 34.522 0 62.508 27.986 62.508 62.509 0 34.522-27.986 62.508-62.508 62.508-34.522 0-62.508-27.986-62.508-62.508Z"/><path d="M110.962 183c0-39.785 32.253-72.038 72.038-72.038s72.038 32.253 72.038 72.038-32.253 72.038-72.038 72.038-72.038-32.253-72.038-72.038ZM183 113.502c-38.383 0-69.498 31.115-69.498 69.498 0 38.382 31.115 69.498 69.498 69.498 38.382 0 69.498-31.116 69.498-69.498 0-38.383-31.116-69.498-69.498-69.498Z"/><path d="M183 104.056c-43.6 0-78.944 35.345-78.944 78.944 0 43.6 35.344 78.945 78.944 78.945S261.944 226.6 261.944 183c0-43.599-35.344-78.944-78.944-78.944ZM106.496 183c0-42.252 34.252-76.504 76.504-76.504s76.504 34.252 76.504 76.504-34.252 76.505-76.504 76.505-76.504-34.253-76.504-76.505Z"/><path d="M97.144 183.001c0-47.417 38.439-85.856 85.856-85.856 47.417 0 85.856 38.439 85.856 85.856 0 47.417-38.439 85.856-85.856 85.856-47.417 0-85.856-38.439-85.856-85.856ZM183 99.495c-46.119 0-83.506 37.387-83.506 83.506s37.387 83.506 83.506 83.506 83.506-37.387 83.506-83.506S229.119 99.495 183 99.495Z"/><path d="M183 90.245c-51.227 0-92.755 41.528-92.755 92.755s41.528 92.755 92.755 92.755 92.755-41.528 92.755-92.755S234.227 90.245 183 90.245ZM92.505 183c0-49.979 40.516-90.495 90.495-90.495 49.979 0 90.495 40.516 90.495 90.495 0 49.979-40.516 90.495-90.495 90.495-49.979 0-90.495-40.516-90.495-90.495Z"/><path d="M178.683 281.997c-55.045-2.202-97.882-48.609-95.68-103.654 2.201-55.044 48.608-97.882 103.653-95.68 55.044 2.202 97.882 48.609 95.68 103.653-2.202 55.045-48.609 97.882-103.653 95.681ZM85.173 178.43c-2.154 53.846 39.75 99.243 93.596 101.397 53.846 2.153 99.243-39.751 101.397-93.597 2.154-53.846-39.751-99.243-93.597-101.397-53.846-2.154-99.243 39.751-101.397 93.597Z"/><path d="M183 76.439c-58.852 0-106.561 47.709-106.561 106.561 0 58.852 47.709 106.561 106.561 106.561 58.852 0 106.561-47.709 106.561-106.561 0-58.852-47.709-106.561-106.561-106.561ZM78.509 183c0-57.709 46.782-104.491 104.491-104.491S287.491 125.29 287.491 183 240.709 287.491 183 287.491 78.509 240.709 78.509 183Z"/><path d="M69.527 183c0-62.669 50.804-113.473 113.473-113.473S296.473 120.331 296.473 183c0 62.67-50.804 113.473-113.473 113.473S69.527 245.67 69.527 183ZM183 71.507c-61.576 0-111.493 49.917-111.493 111.493 0 61.576 49.917 111.493 111.493 111.493 61.576 0 111.493-49.917 111.493-111.493 0-61.576-49.917-111.493-111.493-111.493Z"/><path d="M183 62.616c-66.486 0-120.384 53.898-120.384 120.385 0 66.486 53.898 120.384 120.384 120.384 66.486 0 120.384-53.898 120.384-120.384 0-66.487-53.898-120.385-120.384-120.385ZM64.506 183.001c0-65.443 53.051-118.495 118.494-118.495s118.494 53.052 118.494 118.495c0 65.442-53.051 118.494-118.494 118.494S64.506 248.443 64.506 183.001Z"/><path d="M55.721 183c0-70.294 56.985-127.279 127.279-127.279S310.279 112.706 310.279 183 253.294 310.279 183 310.279 55.721 253.294 55.721 183ZM183 57.511c-69.305 0-125.489 56.184-125.489 125.489 0 69.306 56.184 125.489 125.489 125.489 69.306 0 125.489-56.183 125.489-125.489 0-69.305-56.183-125.489-125.489-125.489Z"/><path d="M183 48.81c-74.111 0-134.19 60.079-134.19 134.19 0 74.112 60.079 134.191 134.19 134.191 74.111 0 134.19-60.079 134.19-134.191 0-74.111-60.079-134.19-134.19-134.19ZM50.51 183c0-73.172 59.317-132.49 132.49-132.49 73.172 0 132.49 59.318 132.49 132.49 0 73.173-59.318 132.491-132.49 132.491-73.173 0-132.49-59.318-132.49-132.491Z"/><path d="M41.91 183c0-77.922 63.168-141.09 141.09-141.09S324.09 105.078 324.09 183 260.922 324.09 183 324.09 41.91 260.922 41.91 183ZM183 43.52c-77.033 0-139.48 62.447-139.48 139.48 0 77.033 62.447 139.48 139.48 139.48 77.032 0 139.48-62.447 139.48-139.48 0-77.033-62.448-139.48-139.48-139.48Z"/><path d="M183 34.999c-81.739 0-148.001 66.262-148.001 148.001S101.26 331.002 183 331.002 331.001 264.739 331.001 183 264.739 34.999 183 34.999ZM36.519 183C36.519 102.101 102.1 36.519 183 36.519S329.481 102.101 329.481 183c0 80.9-65.582 146.482-146.481 146.482S36.519 263.9 36.519 183Z"/><path d="M28.092 183.001C28.092 97.447 97.447 28.093 183 28.093c85.553 0 154.908 69.354 154.908 154.908 0 85.553-69.355 154.908-154.908 154.908-85.553 0-154.908-69.355-154.908-154.908ZM183 29.513C98.23 29.513 29.512 98.23 29.512 183c0 84.769 68.719 153.488 153.488 153.488s153.488-68.719 153.488-153.488c0-84.77-68.719-153.488-153.488-153.488Z"/><path d="M183 21.193C93.636 21.193 21.193 93.636 21.193 183c0 89.364 72.443 161.808 161.807 161.808 89.364 0 161.808-72.444 161.808-161.808 0-89.364-72.444-161.807-161.808-161.807ZM22.523 183C22.523 94.37 94.37 22.523 183 22.523S343.478 94.37 343.478 183 271.629 343.478 183 343.478c-88.63 0-160.477-71.849-160.477-160.478Z"/><path d="M14.28 183.001C14.28 89.82 89.82 14.281 183 14.281s168.719 75.539 168.719 168.72c0 93.18-75.538 168.718-168.719 168.718S14.28 276.181 14.28 183.001ZM183 15.521c-92.496 0-167.48 74.983-167.48 167.48 0 92.496 74.984 167.478 167.48 167.478s167.479-74.982 167.479-167.478c0-92.497-74.983-167.48-167.479-167.48Z"/><path d="M183 7.381C86.009 7.381 7.382 86.008 7.382 183c0 96.991 78.627 175.618 175.618 175.618S358.618 279.991 358.618 183C358.618 86.008 279.991 7.381 183 7.381ZM8.532 183C8.532 86.644 86.644 8.531 183 8.531S357.468 86.644 357.468 183 279.356 357.468 183 357.468 8.532 279.356 8.532 183Z"/><path d="M183 .475C82.194.475.475 82.195.475 183c0 100.806 81.72 182.525 182.525 182.525 100.806 0 182.525-81.719 182.525-182.525C365.525 82.194 283.806.475 183 .475ZM1.525 183C1.525 82.774 82.775 1.525 183 1.525c100.226 0 181.475 81.25 181.475 181.475 0 100.226-81.249 181.475-181.475 181.475S1.525 283.226 1.525 183Z"/></g></svg>
